images/social/lattes.svg

<svg xmlns="http://www.w3.org/2000/svg" width="328.82" height="396.64" viewBox="0 0 328.82 396.64"><defs><style>.a{fill:#333;}</style></defs><title>lattes</title><path class="a" d="M142.78,2.48c20.84-.68,41.89,0,62.31,4.59a320,320,0,0,1,72.18,24.72c3.86,1.9,7.94,3.37,11.7,5.48a7.45,7.45,0,0,1,3.78,6.85c-3.86.71-7.73,1.91-11.69,1.39-15.55-1.87-31.06-4.33-46.73-4.95-17.43-.53-35.4.53-51.7,7.27-6.39,2.78-12.89,5.88-17.74,11-10.12,10-15.32,24.1-16.44,38.1-.23,8.4-.45,16.82,0,25.21,1.86,20.38,6.81,40.34,12.78,59.87,1.84,5.61,3.58,11.27,5.94,16.69.12.53.37,1.59.49,2.12,3.81,8.57,7.13,17.36,10.36,26.17a42,42,0,0,1,1.93,6.51,49.23,49.23,0,0,1-7.08-.32c-19.33-3.4-38.54-7.48-58-10.4q-30.79-5.49-61.58-10.9c-2.29-.46-4.76-.43-6.82-1.66-1.75-2.48-1.9-5.65-2.58-8.52-1-6-2.87-11.8-3.31-17.86a14.88,14.88,0,0,1-2,.88l1.65-1.24c-1.37-7.46-2.31-15-3.38-22.49-.75-13.31-2.14-26.67-.62-40,.24-12.21,2.6-24.28,5.72-36,3.86-13.76,10.7-26.53,18.84-38.21A101.4,101.4,0,0,1,114.24,8.51C123.5,5.44,133.18,4,142.78,2.48Z" transform="translate(-35.59 -2.25)"/><path class="a" d="M169.21,104.21c5.33-17.06,23.35-28.35,40.88-28,19-.9,37.47,6.9,52.29,18.34,13.8,10.68,25.21,25.73,27.95,43.31a46.56,46.56,0,0,1-5.39,27.32c-7.19,11.81-20.53,18.33-33.86,20.24-4.67.28-9.38,1.27-14,.28a85.37,85.37,0,0,1-53.4-28.38c-6.11-7.12-11.32-15.18-13.86-24.29C167.1,123.73,165.9,113.53,169.21,104.21Z" transform="translate(-35.59 -2.25)"/><path class="a" d="M301.51,87.55l2.51-.21a23.31,23.31,0,0,1,5.12,3.44q6.76,6.75,12.94,14.05a164.39,164.39,0,0,1,33.12,51A151,151,0,0,1,364.41,197c-.17,6.74.13,13.52-.38,20.24-1.42,6.29-1.76,12.86-4.32,18.84a180.17,180.17,0,0,1-33.88,62.55c-20.61,24.05-46.59,43.1-74.71,57.47-22.54,12.11-46.73,20.74-71.18,28.09a522.38,522.38,0,0,1-68.1,14.72c-2.74-7.75-5.83-15.37-8.65-23.09-14.78-38-28.8-76.23-43.47-114.23-5.16-13.81-10.5-27.55-15.53-41.4a148.52,148.52,0,0,1,17.09,4.59c7,1.41,13.87,3.25,20.72,5.17,24.6,5.65,49.7,9.84,75,9.81,5.68,0,11.33,1.18,17,.52a154,154,0,0,1,15.92-.81l-.6-.57c8.32-.1,16.54-1.46,24.73-2.79,1.68-.4,3.37-.74,5.07-1.07,20.26-4.73,40.39-11.38,57.87-22.92,15.62-10,28.67-24.64,35.09-42.21,4.39-13.49,4-28.15.56-41.81-2.31-10-6.67-19.43-10-29.16C301.34,95.28,301.44,91.36,301.51,87.55Z" transform="translate(-35.59 -2.25)"/></svg>

<?xml version="1.0" encoding="UTF-8" ?>
<!DOCTYPE svg PUBLIC "-//W3C//DTD SVG 1.1//EN" "http://www.w3.org/Graphics/SVG/1.1/DTD/svg11.dtd">
<svg width="400pt" height="400pt" viewBox="0 0 400 400" version="1.1" xmlns="http://www.w3.org/2000/svg">
<g>
<path fill="#fff" opacity="1.00" d=" M 142.78 2.48 C 163.62 1.80 184.67 2.46 205.09 7.07 C 230.01 12.38 254.31 20.72 277.27 31.79 C 281.13 33.69 285.21 35.16 288.97 37.27 C 291.42 38.68 292.89 41.28 292.75 44.12 C 288.89 44.83 285.02 46.03 281.06 45.51 C 265.51 43.64 250.00 41.18 234.33 40.56 C 216.90 40.03 198.93 41.09 182.63 47.83 C 176.24 50.61 169.74 53.71 164.89 58.86 C 154.77 68.86 149.57 82.96 148.45 96.96 C 148.22 105.36 148.00 113.78 148.49 122.17 C 150.35 142.55 155.30 162.51 161.27 182.04 C 163.11 187.65 164.85 193.31 167.21 198.73 C 167.33 199.26 167.58 200.32 167.70 200.85 C 171.51 209.42 174.83 218.21 178.06 227.02 C 178.88 229.13 179.52 231.31 179.99 233.53 C 177.63 233.54 175.25 233.54 172.91 233.21 C 153.58 229.81 134.37 225.73 114.96 222.81 C 94.43 219.15 73.91 215.49 53.38 211.91 C 51.09 211.45 48.62 211.48 46.56 210.25 C 44.81 207.77 44.66 204.60 43.98 201.73 C 42.96 195.76 41.11 189.93 40.67 183.87 C 40.01 184.21 39.33 184.51 38.62 184.75 L 40.27 183.51 C 38.90 176.05 37.96 168.52 36.89 161.02 C 36.14 147.71 34.75 134.35 36.27 121.03 C 36.51 108.82 38.87 96.75 41.99 84.98 C 45.85 71.22 52.69 58.45 60.83 46.77 C 73.72 28.53 92.85 14.90 114.24 8.51 C 123.50 5.44 133.18 4.00 142.78 2.48 Z" />
<path fill="#fff" opacity="1.00" d=" M 169.21 104.21 C 174.54 87.15 192.56 75.86 210.09 76.23 C 229.07 75.33 247.56 83.13 262.38 94.57 C 276.18 105.25 287.59 120.30 290.33 137.88 C 291.27 147.21 289.57 156.99 284.94 165.20 C 277.75 177.01 264.41 183.53 251.08 185.44 C 246.41 185.72 241.70 186.71 237.04 185.72 C 216.53 183.27 197.24 172.83 183.64 157.34 C 177.53 150.22 172.32 142.16 169.78 133.05 C 167.10 123.73 165.90 113.53 169.21 104.21 Z" />
<path fill="#fff" opacity="1.00" d=" M 301.51 87.55 C 302.14 87.50 303.39 87.39 304.02 87.34 C 305.80 88.36 307.67 89.31 309.14 90.78 C 313.65 95.28 317.97 99.96 322.08 104.83 C 336.22 119.54 347.40 137.02 355.20 155.87 C 360.31 169.02 363.14 182.96 364.41 196.98 C 364.24 203.72 364.54 210.50 364.03 217.22 C 362.61 223.51 362.27 230.08 359.71 236.06 C 352.67 258.85 341.18 280.33 325.83 298.61 C 305.22 322.66 279.24 341.71 251.12 356.08 C 228.58 368.19 204.39 376.82 179.94 384.17 C 157.62 390.63 134.82 395.46 111.84 398.89 C 109.10 391.14 106.01 383.52 103.19 375.80 C 88.41 337.84 74.39 299.57 59.72 261.57 C 54.56 247.76 49.22 234.02 44.19 220.17 C 49.97 221.35 55.68 222.90 61.28 224.76 C 68.27 226.17 75.15 228.01 82.00 229.93 C 106.60 235.58 131.70 239.77 157.00 239.74 C 162.68 239.73 168.33 240.92 174.01 240.26 C 179.30 239.68 184.62 239.48 189.93 239.45 L 189.33 238.88 C 197.65 238.78 205.87 237.42 214.06 236.09 C 215.74 235.69 217.43 235.35 219.13 235.02 C 239.39 230.29 259.52 223.64 277.00 212.10 C 292.62 202.07 305.67 187.46 312.09 169.89 C 316.48 156.40 316.13 141.74 312.65 128.08 C 310.34 118.04 305.98 108.65 302.68 98.92 C 301.34 95.28 301.44 91.36 301.51 87.55 Z" />
</g>
</svg>
